apex/img/service-list-icon-4.svg

<svg width="15" height="22" viewBox="0 0 15 22" fill="none" xmlns="http://www.w3.org/2000/svg">
<path d="M10.0294 10.4848V0H5.85123L1.63992 3.40184L4.45248 6.93775L5.36182 6.29966V10.4921H2.21871V12.7617H13.107V10.4848H10.0294Z" fill="#E5A132"/>
<path d="M15 17.5338H0V22H15V17.5338ZM11.4728 20.4974H3.5272V19.2083H11.4728V20.4974Z" fill="#E5A132"/>
<path d="M13.9517 14.0508H1.0483V16.2448H13.9517V14.0508Z" fill="#E5A132"/>
</svg>

<svg width="15" height="22" fill="none" xmlns="http://www.w3.org/2000/svg"><path d="M10.03 10.485V0H5.85L1.64 3.402l2.812 3.536.91-.638v4.192H2.219v2.27h10.888v-2.277h-3.078zM15 17.534H0V22h15v-4.466zm-3.527 2.963H3.527v-1.289h7.946v1.29zm2.479-6.447H1.048v2.195h12.904V14.05z" fill="#E5A132"/></svg>
